X:1
T:Requiem of Silence
T:Requiem of Silence
T:Elegy for Rem
C:Suehiro Kenichiro
%%score { ( 1 3 4 ) | 2 }
L:1/8
Q:1/4=80
M:4/4
K:D
V:1 treble nm="Piano" snm="Pno."
V:3 treble 
V:4 treble 
V:2 treble 
V:1
!8va(! [bc'f']6 e'2 | f'3 e' d'2 c'2 | [gd']6 d'2 | c'2 d'2 c'3 a!8va)! | [dfb]6 a2 | b2 a2 g3 a | %6
 [Bcf]6 g2 | [Bce]8 | d2 B3 edc | d2 B6 | c2 A3 edc | d2 B6 | d2 B3 edc | d2 B6 | c2 A3 edc | %15
 d2 B6- | B8 | z6 f2- | f2 b6 | d'2 b6 | c'2 a4 f2 | b8 | b2 f'4 b2 | a'4 g'4 | x2 e'4 a2 | %25
 g'4 f'4- | f'2 f'2 e'2 d'2- | d'2 f'2 g'2 d'2 | c'4 d'2 c'2 | f'8 | x6 [Ff][Ee] | %31
 [Ff]4 [B,B]2 [A-fa-]2 | [Afa]2 [Geg][Fdf] [G-eg-]4 | [Gg]4 [A,EA]2 [G-eg-]2 | %34
 [Geg]2 [Fdf][Ece] [Fdf]4 | [Fdf]2 [EBe]2 [DFd]2 [CEc]2 | [DFd]2 [CEc][DFd] [cgc']3 [Beb] | %37
 [Aea]4 [^df]4 | [GBdg]4 [F^Acf]4 | [B,DB]6 [Ff]2 | [dd']2 [Bb]3 [ee'][dd'][cc'] | [dd']2 [Bb]6 | %42
 [cc']2 [Aa]3 [ee'][dd'][cc'] | [dd']2 [Bb]6 | [Ff]2 [Bb]3 [ee'][ff'][cc'] | %45
 [dd']2 [Bb]2 [aa']3 [gg'] | [cc']2 [ee']3 [Aa][dd'][cc'] | [dd']2 [Bb]6 | d2 a4 f'2 | d2 a4 f2 | %50
 d2 a4 f'2 | d2 a4 [Ff-]2 | f2 b4 e'2 | d'2 b6 | c'2 a4 f2 | b8 | [Bb]2 f'4 b2 | a'4 g'4 | %58
 g2 e'4 a2 | x4 x4 | x2 a'2 g'2 f'2- | f'2 f'2 g'2 d'2 | c'4 d'2 c'2 | f'8 | z2 de fgad | %65
 d'gdg a2 d2 | gfdc F2 G2 | d2 B3 EDC | B,8- | B,8 |] %70
V:2
 g8 | z8 | [Bf]8 | z8 | G8 | z8 | [EG]8 |[K:bass] [F,CE]8 | B,,F,CD A2 B,2 | B,,G,DE F2 B,2 | %10
 B,,F,CD A2 B,2 | B,,G,DE F2 B,2 | G,,D,A,B, F2 A,2 | E,,B,,G,D F2 A,2 | F,,C,A,E A2 F,2 | %15
 B,,G,DE F4 | B,,G,CE F4 | B,,F,CA F4 | B,,F,CD [FA]2 B,2 | B,,G,CE F2 B,2 | B,,F,CD A2 B,2 | %21
 B,,G,DE F2 B,2 | G,,D,A,B, F2 A,2 | E,,B,,G,D F2 A,2 | A,,E,B,C G2 A,2 | D,,A,,F,C F4 | %26
 G,,D,B,D F3 G, | C,,G,,E,B, E4 | F,,D,B,C F4 | F,,C,E,^A, F4- | F6 z2 | z B,,F, C4 z | %32
 E,,B,,G,B, D2 E,2 | A,,E,B,C E2 A,2 | D,,A,,F,A, C2 D,2 | C,,G,, E,2 F,,C, E,2 | %36
 G,,D,A,B, A,,E,B,C | F,,=C,E,A, B,4 | E,,B,, F,2 F,,C, F,2 | z8 | B,,F,CD CF,B,F, | %41
 B,,G,DE DCDF, | B,,F,CD ECDF, | B,,G,DE F2 B,2 | G,,D,A,B, F2 A,2 | E,,B,,G,D F2 A,2 | %46
 F,,C,A,E A2 F,2 | B,,G,DE F4 | B,,G,CE F4 | B,,F,CA F4 | [B,,,B,,]G,CE F4 | [B,,,B,,]F,CA F4 | %52
 [B,,,B,,]F,CD [FA]2 B,2 | [B,,,B,,]G,CE F2 B,2 | [B,,,B,,]F,CD A2 B,2 | [B,,,B,,]G,DE F2 B,2 | %56
 [G,,,G,,]D,A,B, F2 A,2 | [E,,,E,,]B,,G,D F2 A,2 | [A,,,A,,]E,B,C G2 A,2 | [D,,,D,,]A,,F,C F4 | %60
 [G,,,G,,]D,B,D F3 G, | [C,,,C,,]G,,E,B, E4 | [F,,,F,,]D,B,C F4 | [F,,,F,,]C,E,^A, F4 | %64
 G,,D,A,B, D2 G,,2 | ^D,,^A,,G,^A, DA,G,D,, | E,,B,,F,G, DB,E,E,, | F,,C,B,C F,2 F,,2 | B,,8 | %69
 [B,,,,B,,,]8 |] %70
V:3
!8va(! x8 | x8 | x8 | x8!8va)! | x8 | x8 | x8 | x8 | x8 | x8 | x8 | x8 | x8 | x8 | x8 | x8 | x8 | %17
 x8 | x5 edc | d2 B6 | c2 A3 edc | d2 B6 | fe f4 B2 | [af']4 [ge']4 | cd [ec']4 A2 | %25
 [ge']4 [fd']4 | x2 fg a2 d2 | x2 ga b2 d2 | x2 ef e2 a2 | x2 de f4- | f6 x2 | x2 d2 x4 | %32
 x2 x2 x4 | e2 d2 x4 | x8 | x8 | x8 | x2 =c2 x4 | x8 | x8 | x8 | x8 | x8 | x8 | x8 | x8 | x8 | x8 | %48
 x2 f2 d3 a | g4 a4 | g4 f4 | [ce]4 x4 | B4 z edc | d2 B6 | c2 A3 edc | d2 B6 | fe f2 a2 B2 | %57
 [af']4 [g-e']4 | cd [ec']4 A2 | [gc'e'g']4 [fd'f']4 | x2 ag [ge']2 [fd']2- | [fd']2 ga !>!b2 d2 | %62
 x2 ef e2 a2 | x2 de f4 | x8 | x8 | x8 | x8 | x8 | x8 |] %70
V:4
!8va(! x8 | x8 | x8 | x8!8va)! | x8 | x8 | x8 | x8 | x8 | x8 | x8 | x8 | x8 | x8 | x8 | x8 | x8 | %17
 x8 | x8 | x8 | x8 | x8 | x8 | x8 | x8 | x8 | x8 | x8 | x8 | x8 | x8 | x8 | x8 | x8 | x8 | x8 | %36
 x8 | x8 | x8 | x8 | x8 | x8 | x8 | x8 | x8 | x8 | x8 | x8 | x8 | x8 | x8 | x8 | x8 | x8 | %54
 e2 x2 c'4 | d'4 [Ff]2 [Aa]2 | x8 | x8 | b8 | x4 x4 | f'2 x2 f'2 x2 | x2 b2 !>!e'2 b2 | %62
 !>!f4 g2 x2 | !>!e4 d'2 c'2 | b8 | x8 | x8 | x8 | x8 | x8 |] %70

